X:100
T:The Glen Cottage
R:polka
M:2/4
L:1/8
K:Emin
|: B/d/ |eA Bd | e/f/e/d/ Bd | eA c/B/A | G>A Bd |
eA Bd | e>d Bd | eg/e/ dB | BA A :|
|: B/d/ |e2 ef/g/ | ae fe | d2 de/f/ | ge fd |
e2 ef/g/ | ae fd | ea e/f/e/d/ | BA A :|

